assets/icons/logo-grey.svg

<svg width="48" height="48" viewBox="0 0 48 48" fill="none" xmlns="http://www.w3.org/2000/svg">
<path d="M23.9989 32.4712C23.2224 32.4712 22.5871 31.8359 22.5871 31.0594C22.5871 25.6241 18.14 21.177 12.7047 21.177C11.9283 21.177 11.293 20.5418 11.293 19.7653C11.293 18.9888 11.9283 18.3535 12.7047 18.3535C19.7283 18.3535 25.4106 24.0359 25.4106 31.0594C25.4106 31.8359 24.7753 32.4712 23.9989 32.4712Z" fill="#1F2041" fill-opacity="0.25"/>
<path d="M36.7068 19.7653C36.7068 20.5418 36.0715 21.177 35.295 21.177C31.9421 21.177 28.9421 22.8712 27.1774 25.4476C26.7892 24.4594 26.3303 23.5418 25.7656 22.6947C28.095 20.0123 31.5186 18.3535 35.295 18.3535C36.0715 18.3535 36.7068 18.9888 36.7068 19.7653Z" fill="#1F2041" fill-opacity="0.25"/>
<path d="M24 48C10.7647 48 0 37.2353 0 24C0 10.7647 10.7647 0 24 0C37.2353 0 48 10.7647 48 24C48 37.2353 37.2353 48 24 48ZM24 2.82353C12.3176 2.82353 2.82353 12.3176 2.82353 24C2.82353 35.6824 12.3176 45.1765 24 45.1765C35.6824 45.1765 45.1765 35.6824 45.1765 24C45.1765 12.3176 35.6824 2.82353 24 2.82353Z" fill="#1F2041" fill-opacity="0.25"/>
</svg>

<svg width="48" height="48" fill="none" xmlns="http://www.w3.org/2000/svg"><path d="M23.999 32.471a1.416 1.416 0 0 1-1.412-1.412c0-5.435-4.447-9.882-9.882-9.882a1.416 1.416 0 0 1-1.412-1.412c0-.776.635-1.412 1.412-1.412 7.023 0 12.706 5.683 12.706 12.706 0 .777-.636 1.412-1.412 1.412Zm12.708-12.706c0 .777-.636 1.412-1.412 1.412a9.851 9.851 0 0 0-8.118 4.27 14.448 14.448 0 0 0-1.411-2.752 12.588 12.588 0 0 1 9.529-4.341c.776 0 1.412.635 1.412 1.411Z" fill="#1F2041" fill-opacity=".25"/><path d="M24 48C10.765 48 0 37.235 0 24S10.765 0 24 0s24 10.765 24 24-10.765 24-24 24Zm0-45.176C12.318 2.824 2.824 12.318 2.824 24c0 11.682 9.494 21.176 21.176 21.176 11.682 0 21.176-9.494 21.176-21.176 0-11.682-9.494-21.176-21.176-21.176Z" fill="#1F2041" fill-opacity=".25"/></svg>
